X: 2231
T: HUISH THE CAT
Q: "Irish Jig."
R: Jig.
%R: jig
B: James Kerr "Merry Melodies" v.2 p.26 #231
Z: 2016 John Chambers <jc:trillian.mit.edu>
M: 6/8
L: 1/8
K: C
|:\
GAG uc2ue | ddA c3 | GAG uc2ud | ecA (A2G) |\
GAG uc2ue | ddA c3 | gfe f2d | ecA (A2G) :|
|:\
gfe uf2ud | edc f2d | gfe f2d | ecA (A2G) |\
gfe uf2ud | edc f2d | GAG f2d | ecA (A2G) :|
